dist/svgs/git-commit.svg

<svg xmlns="http://www.w3.org/2000/svg" viewBox="0 0 512 512"><path d="M512 212v73H398q-12 48-51.5 79T256 395t-90-31-52-79H0v-73h114q13-47 52-78t90-31q25 0 48.5 8t42 22.5 32 34.5 19.5 44h114zM256 322q30 0 51.5-21.5T329 249q0-31-21.5-52T256 176t-51.5 21-21.5 52q0 30 21.5 51.5T256 322z"/></svg>

<?xml version="1.0" encoding="UTF-8" standalone="no"?><svg   xmlns:svg="http://www.w3.org/2000/svg"   xmlns="http://www.w3.org/2000/svg"   version="1.1"   width="512"   height="512"   viewBox="0 0 512 512">  <path     d="M512 212V285H398Q386 333 346.5 364T256 395T166 364T114 285H0V212H114Q127 165 166 134T256 103Q281 103 304.5 111T346.5 133.5T378.5 168T398 212H512zM256 322Q286 322 307.5 300.5T329 249Q329 218 307.5 197T256 176T204.5 197T183 249Q183 279 204.5 300.5T256 322z"     id="git-commit" /></svg>
